dist/svgs/crypto-icons/icons/vior.svg

<?xml version="1.0" encoding="UTF-8" standalone="yes"?>
<svg xmlns="http://www.w3.org/2000/svg" xmlns:xlink="http://www.w3.org/1999/xlink" width="512px" height="512px" viewBox="0 0 384 384" version="1.1">
  <g id="surface1">
    <path style=" stroke:none;fill-rule:nonzero;fill:rgb(0%,0%,0%);fill-opacity:1;" d="M 252.398438 123.644531 L 220.710938 123.644531 L 191.859375 200.589844 L 163.015625 123.644531 L 131.324219 123.644531 L 191.859375 270.75 Z M 252.398438 123.644531 "/>
    <path style=" stroke:none;fill-rule:nonzero;fill:rgb(0%,0%,0%);fill-opacity:1;" d="M 43.902344 252.34375 C 43.902344 181.929688 102.3125 105.210938 192.359375 105.210938 C 243.503906 105.113281 291.105469 131.320312 318.375 174.589844 C 323.632812 160.1875 326.316406 144.972656 326.308594 129.640625 C 326.308594 74.597656 292.257812 27.292969 243.921875 7.261719 C 226.980469 2.496094 209.460938 0.0898438 191.859375 0.101562 C 85.957031 0.101562 0.101562 85.953125 0.101562 191.859375 C 0.101562 255.132812 30.753906 311.242188 78.007812 346.167969 C 56.710938 320.699219 43.902344 288.003906 43.902344 252.34375 Z M 43.902344 252.34375 "/>
    <path style=" stroke:none;fill-rule:nonzero;fill:rgb(0%,0%,0%);fill-opacity:1;" d="M 311.660156 42.132812 C 329.957031 66.589844 340.8125 96.851562 340.8125 129.636719 C 340.8125 210.929688 270.707031 276.765625 192.359375 276.765625 C 141.222656 276.863281 93.625 250.667969 66.347656 207.414062 C 61.089844 221.808594 58.398438 237.015625 58.40625 252.34375 C 58.40625 314.097656 101.261719 366.132812 159.074219 380.816406 C 169.902344 382.683594 180.871094 383.625 191.859375 383.621094 C 297.769531 383.621094 383.621094 297.765625 383.621094 191.859375 C 383.621094 131.28125 355.523438 77.269531 311.660156 42.132812 Z M 311.660156 42.132812 "/>
  </g>
</svg>

<svg xmlns="http://www.w3.org/2000/svg" viewBox="0 0 384 384"><path d="M252.398 123.645h-31.687l-28.852 76.945-28.843-76.945h-31.692L191.86 270.75zm0 0"/><path d="M43.902 252.344c0-70.414 58.41-147.133 148.457-147.133 51.145-.098 98.746 26.11 126.016 69.379a130.879 130.879 0 007.934-44.95c0-55.042-34.051-102.347-82.387-122.378a191.79 191.79 0 00-52.063-7.16C85.957.102.102 85.953.102 191.859c0 63.274 30.652 119.383 77.906 154.309-21.297-25.469-34.106-58.164-34.106-93.824zm0 0"/><path d="M311.66 42.133c18.297 24.457 29.152 54.719 29.152 87.504 0 81.293-70.105 147.129-148.453 147.129-51.136.097-98.734-26.098-126.011-69.352a130.761 130.761 0 00-7.942 44.93c0 61.754 42.856 113.789 100.668 128.472a192.537 192.537 0 0032.785 2.805c105.91 0 191.762-85.855 191.762-191.762 0-60.578-28.098-114.59-71.96-149.726zm0 0"/></svg>
